packages/core/src/svgs/tokens/branded/ORN.svg

<svg width="24" height="24" viewBox="0 0 24 24" fill="none" xmlns="http://www.w3.org/2000/svg">
<path d="M10.2554 3.38727C7.90361 3.38727 5.11078 4.98006 4.07495 6.40518C6.03579 5.14829 9.16685 4.62406 10.1297 4.75727C14.0342 5.3837 15.3416 8.88445 15.5385 10.6788C17.0297 11.2663 19.977 11.4437 18.3969 8.32411C16.4262 4.43515 13.139 3.38727 10.2554 3.38727Z" fill="url(#paint0_linear_364_10460)"/>
<path d="M8.80538 17.9175C12.5571 17.9175 15.5985 14.9191 15.5985 11.2203C15.5985 7.52148 12.5571 4.52299 8.80538 4.52299C5.05362 4.52299 2.01221 7.52148 2.01221 11.2203C2.01221 14.9191 5.05362 17.9175 8.80538 17.9175Z" fill="url(#paint1_linear_364_10460)"/>
<path d="M10.3379 17.1677C13.0334 17.1677 15.2184 14.9826 15.2184 12.2872C15.2184 9.59171 13.0334 7.40656 10.3379 7.40656C7.64238 7.40656 5.45728 9.59171 5.45728 12.2872C5.45728 14.9826 7.64238 17.1677 10.3379 17.1677Z" fill="#25253B"/>
<path d="M21.3939 10.7363C22.3161 10.0892 21.9963 8.78343 21.6667 8.34132C21.1591 7.65919 20.4489 7.57594 20.1623 7.6081C17.8891 7.86533 16.0305 10.3871 15.3059 11.6256L18.1556 13.6008C18.2893 13.4142 18.6395 12.8544 19.2074 12.2033C19.8953 11.4143 20.8169 11.141 21.3939 10.7363Z" fill="url(#paint2_linear_364_10460)"/>
<path d="M19.1679 11.1795C19.6565 10.165 18.7964 9.26467 18.2934 9.03959C17.5172 8.69215 16.9269 8.93911 16.7506 9.03959C14.8926 10.374 14.3735 13.5767 14.3459 15.0111L18.1316 15.4899C18.1568 15.2615 18.212 14.5712 18.2291 13.6405C18.2469 12.7092 18.9342 11.6653 19.1679 11.1795Z" fill="url(#paint3_linear_364_10460)"/>
<path d="M10.3666 20.6127C5.17189 20.6127 1.76984 15.9194 2.01215 11.4258C3.68877 17.0373 7.77697 18.2162 10.3666 17.6115C12.4382 17.128 14.298 15.0352 15.026 14.012C15.3234 13.5945 16.4287 13.4378 17.3475 13.9396C18.2662 14.4408 18.4861 15.5416 18.2667 15.951C16.0722 20.05 12.3463 20.6127 10.3666 20.6127Z" fill="url(#paint4_linear_364_10460)"/>
<path d="M18.6632 6.83237C19.6146 6.83237 20.3859 6.06115 20.3859 5.10981C20.3859 4.15847 19.6146 3.38727 18.6632 3.38727C17.712 3.38727 16.9407 4.15847 16.9407 5.10981C16.9407 6.06115 17.712 6.83237 18.6632 6.83237Z" fill="url(#paint5_linear_364_10460)"/>
<defs>
<linearGradient id="paint0_linear_364_10460" x1="3.86261" y1="7.38864" x2="23.011" y2="11.5472" gradientUnits="userSpaceOnUse">
<stop stop-color="#5D86BC"/>
<stop offset="0.614" stop-color="#6CC3D7"/>
</linearGradient>
<linearGradient id="paint1_linear_364_10460" x1="3.06927" y1="8.85658" x2="20.3403" y2="15.9843" gradientUnits="userSpaceOnUse">
<stop offset="0.226" stop-color="#94D0DA"/>
<stop offset="1" stop-color="#3F65AE"/>
</linearGradient>
<linearGradient id="paint2_linear_364_10460" x1="17.4757" y1="3.11038" x2="8.61259" y2="19.593" gradientUnits="userSpaceOnUse">
<stop stop-color="#F57240"/>
<stop offset="1" stop-color="#FBE18C"/>
</linearGradient>
<linearGradient id="paint3_linear_364_10460" x1="3.77118" y1="13.7322" x2="18.2341" y2="3.02504" gradientUnits="userSpaceOnUse">
<stop offset="0.212" stop-color="#583D90"/>
<stop offset="1" stop-color="#DC719B"/>
</linearGradient>
<linearGradient id="paint4_linear_364_10460" x1="1.85961" y1="4.27869" x2="21.6038" y2="8.4957" gradientUnits="userSpaceOnUse">
<stop stop-color="#4FA2C5"/>
<stop offset="1" stop-color="#FD7813"/>
</linearGradient>
<linearGradient id="paint5_linear_364_10460" x1="19.6684" y1="3.96432" x2="17.6319" y2="6.33972" gradientUnits="userSpaceOnUse">
<stop stop-color="#B1599B"/>
<stop offset="1" stop-color="#5B418B"/>
</linearGradient>
</defs>
</svg>

<svg xmlns="http://www.w3.org/2000/svg" width="24" height="24" fill="none" viewBox="0 0 24 24">
    <path fill="url(#ORN__a)" d="M10.255 3.387c-2.351 0-5.144 1.593-6.18 3.018 1.96-1.257 5.092-1.78 6.055-1.648 3.904.627 5.212 4.127 5.409 5.922 1.49.587 4.438.765 2.858-2.355-1.97-3.889-5.258-4.937-8.142-4.937"/>
    <path fill="url(#ORN__b)" d="M8.805 17.918c3.752 0 6.794-2.999 6.794-6.698s-3.042-6.697-6.794-6.697-6.793 2.998-6.793 6.697c0 3.7 3.042 6.698 6.793 6.698"/>
    <path fill="#25253B" d="M10.338 17.168a4.88 4.88 0 1 0 0-9.761 4.88 4.88 0 0 0 0 9.76"/>
    <path fill="url(#ORN__c)" d="M21.394 10.736c.922-.647.602-1.953.273-2.395-.508-.682-1.218-.765-1.505-.733-2.273.257-4.131 2.78-4.856 4.018l2.85 1.975c.133-.187.484-.747 1.051-1.398.688-.789 1.61-1.062 2.187-1.467"/>
    <path fill="url(#ORN__d)" d="M19.168 11.18c.489-1.015-.372-1.915-.875-2.14-.776-.348-1.366-.1-1.542 0-1.858 1.334-2.378 4.537-2.405 5.971l3.786.479c.025-.229.08-.919.097-1.85.018-.93.705-1.975.939-2.46"/>
    <path fill="url(#ORN__e)" d="M10.367 20.613c-5.195 0-8.597-4.694-8.355-9.187 1.677 5.611 5.765 6.79 8.355 6.185 2.071-.483 3.931-2.576 4.659-3.599.297-.418 1.403-.574 2.322-.072.918.5 1.138 1.602.919 2.011-2.195 4.099-5.92 4.662-7.9 4.662"/>
    <path fill="url(#ORN__f)" d="M18.663 6.832a1.723 1.723 0 1 0 0-3.445 1.723 1.723 0 0 0 0 3.445"/>
    <defs>
        <linearGradient id="ORN__a" x1="3.863" x2="23.011" y1="7.389" y2="11.547" gradientUnits="userSpaceOnUse">
            <stop stop-color="#5D86BC"/>
            <stop offset=".614" stop-color="#6CC3D7"/>
        </linearGradient>
        <linearGradient id="ORN__b" x1="3.069" x2="20.34" y1="8.857" y2="15.984" gradientUnits="userSpaceOnUse">
            <stop offset=".226" stop-color="#94D0DA"/>
            <stop offset="1" stop-color="#3F65AE"/>
        </linearGradient>
        <linearGradient id="ORN__c" x1="17.476" x2="8.613" y1="3.11" y2="19.593" gradientUnits="userSpaceOnUse">
            <stop stop-color="#F57240"/>
            <stop offset="1" stop-color="#FBE18C"/>
        </linearGradient>
        <linearGradient id="ORN__d" x1="3.771" x2="18.234" y1="13.732" y2="3.025" gradientUnits="userSpaceOnUse">
            <stop offset=".212" stop-color="#583D90"/>
            <stop offset="1" stop-color="#DC719B"/>
        </linearGradient>
        <linearGradient id="ORN__e" x1="1.86" x2="21.604" y1="4.279" y2="8.496" gradientUnits="userSpaceOnUse">
            <stop stop-color="#4FA2C5"/>
            <stop offset="1" stop-color="#FD7813"/>
        </linearGradient>
        <linearGradient id="ORN__f" x1="19.668" x2="17.632" y1="3.964" y2="6.34" gradientUnits="userSpaceOnUse">
            <stop stop-color="#B1599B"/>
            <stop offset="1" stop-color="#5B418B"/>
        </linearGradient>
    </defs>
</svg>
